icons/folder-gh-workflows.svg

<svg xmlns="http://www.w3.org/2000/svg" viewBox="0 0 32 32"><path d="M13.84376,7.53645l-1.28749-1.0729A2,2,0,0,0,11.27591,6H4A2,2,0,0,0,2,8V24a2,2,0,0,0,2,2H28a2,2,0,0,0,2-2V10a2,2,0,0,0-2-2H15.12412A2,2,0,0,1,13.84376,7.53645Z" style="fill:#546e7a"/><path d="M24,22v2H22a2.00229,2.00229,0,0,1-2-2V18h2V12H16v6h2v4a4.00427,4.00427,0,0,0,4,4h2v2h6V22Zm-6-6V14h2v2ZM28,26H26V24h2Z" style="fill:#eceff1"/></svg>

<svg xmlns="http://www.w3.org/2000/svg" viewBox="0 0 32 32"><path fill="#546e7a" d="m13.844 7.536-1.288-1.072A2 2 0 0 0 11.276 6H4a2 2 0 0 0-2 2v16a2 2 0 0 0 2 2h24a2 2 0 0 0 2-2V10a2 2 0 0 0-2-2H15.124a2 2 0 0 1-1.28-.464Z"/><path fill="#eceff1" d="M24 22v2h-2a2.002 2.002 0 0 1-2-2v-4h2v-6h-6v6h2v4a4.004 4.004 0 0 0 4 4h2v2h6v-6Zm-6-6v-2h2v2Zm10 10h-2v-2h2Z"/></svg>
